public/img/tools-laravel.svg

<?xml version="1.0" encoding="UTF-8"?><svg id="a" xmlns="http://www.w3.org/2000/svg" viewBox="0 0 25 25"><defs><style>.b{fill:#ff2d20;}</style></defs><path class="b" d="M24.63,5.66s.01,.07,.01,.1v5.37c0,.14-.07,.27-.2,.34l-4.5,2.59v5.14c0,.14-.07,.27-.2,.34l-9.4,5.41s-.04,.02-.07,.03c0,0-.02,0-.03,.01-.07,.02-.13,.02-.2,0-.01,0-.02,0-.03-.01-.02,0-.04-.01-.06-.03L.55,19.54c-.12-.07-.2-.2-.2-.34V3.1s0-.07,.01-.1c0-.01,0-.02,.01-.03,0-.02,.01-.04,.02-.06,0-.01,.02-.02,.03-.03,.01-.02,.02-.03,.03-.05,.01-.01,.03-.02,.04-.03,.01-.01,.03-.02,.04-.03h0L5.25,.05c.12-.07,.27-.07,.39,0l4.7,2.71h0s.03,.02,.04,.03c.01,0,.03,.02,.04,.03,.01,.01,.02,.03,.04,.05,0,.01,.02,.02,.03,.03,.01,.02,.02,.04,.03,.06,0,.01,.01,.02,.01,.03,0,.03,.01,.07,.01,.1V13.15l3.92-2.26V5.76s0-.07,.01-.1c0-.01,0-.02,.01-.03,0-.02,.01-.04,.03-.06,0-.01,.02-.02,.03-.03,.01-.02,.02-.03,.04-.05,.01-.01,.03-.02,.04-.03,.01-.01,.03-.02,.04-.03h0l4.7-2.71c.12-.07,.27-.07,.39,0l4.7,2.71s.03,.02,.04,.03c.01,0,.03,.02,.04,.03,.01,.01,.02,.03,.04,.05,0,.01,.02,.02,.03,.03,.01,.02,.02,.04,.03,.06,0,.01,.01,.02,.01,.03h0Zm-.77,5.24V6.44l-1.64,.95-2.27,1.31v4.46l3.92-2.26h0Zm-4.7,8.07v-4.47l-2.24,1.28-6.38,3.64v4.51l8.62-4.96ZM1.14,3.78v15.19l8.62,4.96v-4.51l-4.5-2.55h0s-.03-.02-.04-.03c-.01,0-.03-.02-.04-.03h0s-.02-.03-.03-.04c0-.01-.02-.02-.03-.04h0s-.01-.03-.02-.05c0-.01-.01-.03-.02-.04h0s0-.04,0-.06c0-.01,0-.03,0-.04V6.03l-2.27-1.31-1.64-.95h0ZM5.45,.84L1.53,3.1l3.92,2.25,3.92-2.25L5.45,.84h0Zm2.04,14.07l2.27-1.31V3.78l-1.64,.95-2.27,1.31V15.86l1.65-.95ZM19.55,3.5l-3.92,2.25,3.92,2.25,3.92-2.25-3.92-2.25Zm-.39,5.19l-2.27-1.31-1.64-.95v4.46l2.27,1.31,1.65,.95v-4.46Zm-9.01,10.06l5.74-3.28,2.87-1.64-3.91-2.25-4.5,2.59-4.11,2.36,3.91,2.21Z"/></svg>

<?xml version="1.0" encoding="utf-8"?>
<!-- Generator: Adobe Illustrator 26.2.1, SVG Export Plug-In . SVG Version: 6.00 Build 0)  -->
<svg version="1.1" id="a" xmlns="http://www.w3.org/2000/svg" xmlns:xlink="http://www.w3.org/1999/xlink" x="0px" y="0px"
	 viewBox="0 0 25 25" style="enable-background:new 0 0 25 25;" xml:space="preserve">
<style type="text/css">
	.st0{fill:#FF2D20;}
</style>
<path class="st0" d="M24.63,5.66c0,0,0.01,0.07,0.01,0.1v5.37c0,0.14-0.07,0.27-0.2,0.34l-4.5,2.59v5.14c0,0.14-0.07,0.27-0.2,0.34
	l-9.4,5.41c0,0-0.04,0.02-0.07,0.03c0,0-0.02,0-0.03,0.01c-0.07,0.02-0.13,0.02-0.2,0c-0.01,0-0.02,0-0.03-0.01
	c-0.02,0-0.04-0.01-0.06-0.03l-9.4-5.41c-0.12-0.07-0.2-0.2-0.2-0.34V3.1c0,0,0-0.07,0.01-0.1c0-0.01,0-0.02,0.01-0.03
	c0-0.02,0.01-0.04,0.02-0.06c0-0.01,0.02-0.02,0.03-0.03c0.01-0.02,0.02-0.03,0.03-0.05C0.46,2.82,0.48,2.81,0.49,2.8
	C0.5,2.79,0.52,2.78,0.53,2.77l0,0l4.72-2.72c0.12-0.07,0.27-0.07,0.39,0l4.7,2.71l0,0c0,0,0.03,0.02,0.04,0.03
	c0.01,0,0.03,0.02,0.04,0.03s0.02,0.03,0.04,0.05c0,0.01,0.02,0.02,0.03,0.03c0.01,0.02,0.02,0.04,0.03,0.06
	c0,0.01,0.01,0.02,0.01,0.03c0,0.03,0.01,0.07,0.01,0.1v10.06l3.92-2.26V5.76c0,0,0-0.07,0.01-0.1c0-0.01,0-0.02,0.01-0.03
	c0-0.02,0.01-0.04,0.03-0.06c0-0.01,0.02-0.02,0.03-0.03c0.01-0.02,0.02-0.03,0.04-0.05c0.01-0.01,0.03-0.02,0.04-0.03
	s0.03-0.02,0.04-0.03l0,0l4.7-2.71c0.12-0.07,0.27-0.07,0.39,0l4.7,2.71c0,0,0.03,0.02,0.04,0.03c0.01,0,0.03,0.02,0.04,0.03
	s0.02,0.03,0.04,0.05c0,0.01,0.02,0.02,0.03,0.03c0.01,0.02,0.02,0.04,0.03,0.06c0,0.01,0.01,0.02,0.01,0.03l0,0L24.63,5.66z
	 M23.86,10.9V6.44l-1.64,0.95L19.95,8.7v4.46l3.92-2.26l0,0H23.86z M19.16,18.97V14.5l-2.24,1.28l-6.38,3.64v4.51L19.16,18.97z
	 M1.14,3.78v15.19l8.62,4.96v-4.51l-4.5-2.55l0,0c0,0-0.03-0.02-0.04-0.03c-0.01,0-0.03-0.02-0.04-0.03l0,0c0,0-0.02-0.03-0.03-0.04
	c0-0.01-0.02-0.02-0.03-0.04l0,0c0,0-0.01-0.03-0.02-0.05c0-0.01-0.01-0.03-0.02-0.04l0,0c0,0,0-0.04,0-0.06c0-0.01,0-0.03,0-0.04
	V6.03L2.81,4.72L1.17,3.77l0,0L1.14,3.78z M5.45,0.84L1.53,3.1l3.92,2.25L9.37,3.1L5.45,0.84L5.45,0.84z M7.49,14.91l2.27-1.31V3.78
	L8.12,4.73L5.85,6.04v9.82l1.65-0.95H7.49z M19.55,3.5l-3.92,2.25L19.55,8l3.92-2.25L19.55,3.5z M19.16,8.69l-2.27-1.31l-1.64-0.95
	v4.46l2.27,1.31l1.65,0.95L19.16,8.69L19.16,8.69z M10.15,18.75l5.74-3.28l2.87-1.64l-3.91-2.25l-4.5,2.59l-4.11,2.36L10.15,18.75
	L10.15,18.75z"/>
</svg>
